build/assets/images/bnt/icon-building.svg

<svg aria-hidden="true" focusable="false" data-prefix="fas" data-icon="building" class="svg-inline--fa fa-building fa-w-14" role="img" xmlns="http://www.w3.org/2000/svg" viewBox="0 0 448 512"><path fill="#012c71" d="M436 480h-20V24c0-13.255-10.745-24-24-24H56C42.745 0 32 10.745 32 24v456H12c-6.627 0-12 5.373-12 12v20h448v-20c0-6.627-5.373-12-12-12zM128 76c0-6.627 5.373-12 12-12h40c6.627 0 12 5.373 12 12v40c0 6.627-5.373 12-12 12h-40c-6.627 0-12-5.373-12-12V76zm0 96c0-6.627 5.373-12 12-12h40c6.627 0 12 5.373 12 12v40c0 6.627-5.373 12-12 12h-40c-6.627 0-12-5.373-12-12v-40zm52 148h-40c-6.627 0-12-5.373-12-12v-40c0-6.627 5.373-12 12-12h40c6.627 0 12 5.373 12 12v40c0 6.627-5.373 12-12 12zm76 160h-64v-84c0-6.627 5.373-12 12-12h40c6.627 0 12 5.373 12 12v84zm64-172c0 6.627-5.373 12-12 12h-40c-6.627 0-12-5.373-12-12v-40c0-6.627 5.373-12 12-12h40c6.627 0 12 5.373 12 12v40zm0-96c0 6.627-5.373 12-12 12h-40c-6.627 0-12-5.373-12-12v-40c0-6.627 5.373-12 12-12h40c6.627 0 12 5.373 12 12v40zm0-96c0 6.627-5.373 12-12 12h-40c-6.627 0-12-5.373-12-12V76c0-6.627 5.373-12 12-12h40c6.627 0 12 5.373 12 12v40z"></path></svg>

<svg xmlns="http://www.w3.org/2000/svg" width="448" height="512" viewBox="0 0 448 512">
  <defs>
    <style>
      .cls-1 {
        fill: #ddd;
      }
    </style>
  </defs>
  <path id="icon-building" class="cls-1" d="M436,480H416V24A24,24,0,0,0,392,0H56A24,24,0,0,0,32,24V480H12A12,12,0,0,0,0,492v20H448V492A12,12,0,0,0,436,480ZM128,76a12,12,0,0,1,12-12h40a12,12,0,0,1,12,12v40a12,12,0,0,1-12,12H140a12,12,0,0,1-12-12Zm0,96a12,12,0,0,1,12-12h40a12,12,0,0,1,12,12v40a12,12,0,0,1-12,12H140a12,12,0,0,1-12-12Zm52,148H140a12,12,0,0,1-12-12V268a12,12,0,0,1,12-12h40a12,12,0,0,1,12,12v40A12,12,0,0,1,180,320Zm76,160H192V396a12,12,0,0,1,12-12h40a12,12,0,0,1,12,12Zm64-172a12,12,0,0,1-12,12H268a12,12,0,0,1-12-12V268a12,12,0,0,1,12-12h40a12,12,0,0,1,12,12Zm0-96a12,12,0,0,1-12,12H268a12,12,0,0,1-12-12V172a12,12,0,0,1,12-12h40a12,12,0,0,1,12,12Zm0-96a12,12,0,0,1-12,12H268a12,12,0,0,1-12-12V76a12,12,0,0,1,12-12h40a12,12,0,0,1,12,12Z"/>
</svg>
